X:1
T:Partita N° 3 for Keyboard
T:Partita N° 3 for Keyboard
T:Partita No.3 in A minor, BWV 827 
T:J.S.Bach
C:J.S.Bach
%%score { 1 | 2 }
L:1/8
Q:3/8=63
M:3/8
K:C
V:1 treble nm="Piano" snm="Pno."
V:2 bass 
V:1
!mf!"^Allegro moderato."!<(! z/ A/B/^G/A/c/!<)! | D/B/!>(!E/D/C/B,/!>)! |!<(! (CE!<)!A- | A^GB-) | %4
"_cresc." B/A/^G/A/B/c/ | d/f/B/f/e/d/ | cB/A/!f!f- | fe/d/g | e/c/d/!<(!B/c/e/!<)! | %9
 a/B/c/A/"_dim."B/d/ | g/A/B/^G/A/c/ | (fd=G) | (ecF) | d/E/!<(!F/D/E/!<)!^G/ |!>(! cB!>)!A | %15
 ^G/A/B/F/E/D/ |!p! C/E/F/D/E/A/ | B/E/!<(!F/D/E/B/ | c/!<)!E/F/D/!>(!E/c/ | B/A/^G/B/!>)!E | %20
!mf! z/ e/f/!<(!d/e/c/ | B/!<)!e/!>(!f/d/e/B/ | A/e/!>)!f/d/e/A/ | ^G/B/E/!<(!c/d/B/!<)! | %24
!>(! c/e/A/!>)!^G/A/c/ |"_dim." ^F/A/D/!<(!B/c/A/!<)! |!>(! B/d/=G/!>)!^F/G/B/ | E/G/C/A/B/G/ | %28
!p! A/c/^F/E/F/A/ | ^D/^F/B,/G/A/F/ |!mf!!<(! GBe-!<)! | e^d^f- | f/e/^f/!<(!^d/e/g/!<)! | %33
 A/!>(!^f/B/A/G/!>)!^F/ | G"_cresc."^F/E/c- | cB/A/=d | B/c/d/e/^f/g/ | a/c'/^f/c'/b/a/ | %38
 g"_dim."be | cad | Bgc |!p! A/^F/G/!<(!E/F/A/!<)! |!>(! d/E/^F/^D/!>)!E/G/ | %43
 c/^D/E/!<(!^C/D/^F/!<)! |!>(! B/E/A/B,/=C/A,/!>)! | B,/^D/^F/"_cresc."A/G/F/ | G/B/c/A/B/e/ | %47
 ^f/B/c/A/B/f/ | g/B/c/A/B/g/ |!>(! ^f/e/^d/f/B-!>)! |!p! Be/^f/g | (APG/)^F/G/A/ | B/G/A/^F/G/e/ | %53
 P^F3- |"_cresc." F/B/e/^d/e/g/ | c/e/A/!<(!^f/g/e/!<)! |!>(! ^f/a/d/!>)!^c/d/f/ | %57
 B/d/G/!<(!e/^f/^d/!<)! |!>(! e/g/c/!>)!B/c/e/ | A/c/^F/!<(!^d/e/^c/ | ^d/^f/B/g/a/f/!<)! | %61
!f!!<(! g3-!<)! | g/e/^f/^d/e/c'/ | b/e/^f/^d/e/!>(!b/ | .aP^f3/2e/4f/4!>)! |!p! e3- | %66
 e/=B/^c/e/g/d/ |!f! e/g/_b/g/e/f/ | g/!>(!e/^c/_B/A/!>)!g/ |!p! a3- | a/A/B/d/f/c/ | %71
!f! d/f/_a/f/d/e/ | f/!>(!d/B/_A/G/!>)!f/ |"_cresc." e3- |!f! e/a/b/^g/a/c'/ | d/^g/a/^f/g/b/ | %76
 c/a/!>(!=f/d/B/d/ | P^G>^F!>)!E |!mf! z/ e/=f/d/!<(!e/c/ | B/e/f/!<)!!>(!d/e/B/ | %80
 A/e/!>)!f/d/e/A/ | ^G/B/E/c/d/B/ | c/e/!<(!A/f/g/e/!<)! |!>(! f/a/d/c/d/!>)!f/ | %84
 B/d/G/!<(!e/f/d/!<)! |!>(!"_dim." e/g/c/!>)!B/c/e/ | A/c/F/d/e/c/ | d/f/B/A/B/d/ | ^G/B/E/c/d/B/ | %89
 c/e/A/"_cresc."^G/A/c/ | d/f/A/^G/A/d/ | e/g/A/^G/A/e/ |!f! f3- |!>(! f/A/B/!>)!"_dim."^G/A/f/ | %94
 e/A/B/^G/A/e/ | .d(.PB3/2A/4B/4) |!p! A/E/F/D/E/A/ | B/E/F/!<(!D/E/B/ | c/E/!<)!F/D/E/c/ | %99
!>(! B/A/^G/^F/E/D/!>)! | C"_cresc."A3/2^G/4A/4 | DA3/2^G/4A/4 | E/^G/A/B/c- | %103
 c/A/B/!<(!^G/A/c/!<)! | f3- | f/d/!<(!e/^c/d/f/!<)! |!f! b3- | b/=c/d/B/c/"_dim."e/ | %108
 a/B/c/A/B/d/ | g/A/B/^G/A/c/ | fd=G | ecF |!p! d/E/F/D/E/^G/ | c/^D/E/^C/D/^F/ | %114
"_cresc." A/^F/^D/=C/B,/A/ | ^G/B/d/=f/!f!e- | e/A/!>(!c/B/A/^G/!>)! |!mf! A/E/F/D/_B/^G/ | %118
 A/c/E/A/=B/^G/ | A3 |] %120
V:2
 (A,A,,A,- | A,^G,E,) | z/ A,/B,/!<(!^G,/A,/C/!<)! | D,/B,/!>(!E,/D,/C,/!>)!B,,/ | (C,E,A,- | %5
 A,^G,B,-) | B,/A,/^G,/A,/B,/C/ | D/F/B,/F/E/D/ | (CEA, | (F)DG,) | (ECA,) | %11
 D/B,/C/!<(!A,/B,/D/!<)! |!>(! G/A,/B,/!>)!G,/A,/C/ | F/^G,/A,/^F,/G,/B,/ | E/A,/D/E,/=F,/D,/ | %15
 E,^G,E, | A,A,,A,- | A,/^G,/A,/^F,/G,/E,/ | A,/^G,/A,/B,/C/D/ | E/F/E/D/C/B,/ | (A,A,,A,) | %21
 (=G,G,,G,) | (F,F,,F,) | E,^G,,E,, | A,,B,,C, | D,^F,D, | G,A,B, | CE,C, | ^F,G,A, | B,^D,B,, | %30
 C,/E/!<(!^F/^D/E/G/!<)! | A,/^F/!>(!B,/A,/G,/^F,/!>)! | G,B,,E,- | E,^D,^F,- | %34
 ^F,/E,/^D,/E,/F,/G,/ | A,/C/^F,/C/B,/A,/ | G,^F,/E,/C- | CB,/A,/D | B,/G,/A,/^F,/G,/B,/ | %39
 E/^F,/G,/E,/F,/A,/ | D/E,/^F,/D,/E,/G,/ | CA,D, | B,G,C, | B,/B,,/C,/A,,/B,,/^D,/ | G,^F,E, | %45
 ^D,B,,D, | E,E,,E,- | E,/^D,/E,/^C,/D,/B,,/ | E,E,,E, | B,,/C,/B,,/A,,/G,,/^F,,/ | %50
 G,,/B,,/C,/A,,/!<(!B,,/G,,/ | ^F,,/!<)!B,,/!>(!C,/A,,/B,,/!>)!F,,/ | E,,/B,,/C,/A,,/B,,/E,,/ | %53
 ^D,,/^F,,/B,,/G,,/A,,/F,,/ | G,,^F,,E,, | A,,C,A,, | D,E,^F, | G,B,G, | CE,C, | ^F,A,F, | %60
 B,^D,B,, | !wedge!E,/E/^F/^D/E/G/ | A,C^F, | G,B,E, | CA,B, | E,/^F,/G,/"^cresc."A,/_B,/=D,/ | %66
 (^C,E,C,) | (.A,,.^C) z | (E,A,^C,) | D,/E,/"^cresc."F,/G,/_A,/=C,/ | (B,,D,B,,) | (.G,,.B,) z | %72
 (D,G,B,,) | C,/D,/E,/B,,/C,/A,,/ | (.F,,.F,) z | (.B,,.B,) z | (A,D,F,) | E,/F,/E,/D,/C,/B,,/ | %78
 A,,A,A,, | G,,G,G,, | F,,F,F,, | E,,^G,,E,, | A,,C,A,, | D,E,F, | G,B,G, | C,D,E, | F,A,F, | %87
 B,,C,D, | E,^G,E, | A,CA, | F,E,D, | ^C,B,,A,, |!<(! D,/F,/A,/E,/F,/A,/!<)! | DFB, | CEA, | %95
 F,D,E, | A,A,,A,- | A,/^G,/A,/^F,/G,/E,/ | A,A,,A, | E,/F,/E,/D,/C,/B,,/ | A,,/E,/F,/D,/E,/A,,/ | %101
 B,,/E,/F,/D,/E,/B,,/ | C,/E,/F,/D,/E,/C,/ | D,3- |!<(! D,/B,,/C,/A,,/B,,/D,/!<)! | ^G,3- | %106
 G,/E,/!<(!=F,/D,/E,/^G,/!<)! | CEA, | FDG, | ECF, | D/B,/C/!<(!A,/B,/D/!<)! | %111
 G/A,/!>(!B,/^G,/A,/!>)!C/ | F/^G,/A,/^F,/G,/B,/ | E/^F,/^G,/E,/F,/A,/ | ^D,^F,D, | %115
 E,/=D,/B,,/^G,,/B,,/D,/ | C,,D,,E,, | F,,A,,D, | ^D,E,E,, | A,,3 |] %120

